WeatherApp/ClientApp/src/assets/icons/humidity.svg

<svg width="33" height="21" viewBox="0 0 33 21" fill="none" xmlns="http://www.w3.org/2000/svg">
<g clip-path="url(#clip0)">
<path d="M15.8168 0.687794C15.292 1.15328 12.2378 5.06005 10.9468 6.90537C9.63486 8.78394 8.3439 11.0781 7.93457 12.2502C7.68268 12.965 7.68268 14.7272 7.93457 15.467C8.70075 17.7196 11.0308 19.5733 13.8856 20.1801C14.8407 20.3796 17.3386 20.3796 18.2937 20.1801C20.6028 19.6896 22.6494 18.3514 23.657 16.6723C24.2657 15.6665 24.4232 15.1013 24.4232 13.8461C24.4232 12.6824 24.3182 12.2502 23.7305 11.0199C23.4156 10.3633 21.8937 7.83634 21.4319 7.1963C21.2955 7.01343 20.8127 6.34013 20.3509 5.70009C19.1649 4.05426 16.7509 1.0286 16.3311 0.646232C16.1106 0.463363 16.0687 0.463363 15.8168 0.687794Z" fill="#57ADDD"/>
</g>
<defs>
<clipPath id="clip0">
<rect x="0.451172" y="-0.658783" width="34.0057" height="21.5288" fill="white"/>
</clipPath>
</defs>
</svg>

<svg xmlns="http://www.w3.org/2000/svg" width="33" height="21" fill="none" xmlns:v="https://vecta.io/nano"><g clip-path="url(#A)"><path d="M15.817.688c-.525.465-3.58 4.372-4.87 6.218-1.312 1.88-2.603 4.173-3.012 5.345-.252.715-.252 2.477 0 3.217.766 2.253 3.096 4.106 5.95 4.713.955.2 3.453.2 4.408 0 2.31-.49 4.356-1.83 5.363-3.508.61-1.006.766-1.57.766-2.826 0-1.164-.105-1.596-.693-2.826-.315-.657-1.837-3.184-2.3-3.824L20.35 5.7 16.33.646c-.22-.183-.262-.183-.514.042z" fill="#57addd"/></g><defs><clipPath id="A"><path fill="#fff" d="M.45-.66h34.006v21.53H.45z"/></clipPath></defs></svg>
